X:415
T: P.J.Conlon's
S: "Crossroads Dance" [Taylor/Mallinson]
Z: B.Black
R: reel
M: 4/4
L: 1/8
K: D
Addc A3B|cBcd e2 dc|Addc A3B|cAGE ED D2 :|
d2 fd Adfd|cdef g2 fe|d2 fd Adfd|faag eddc|
d2 fd Adfd|cdef g2 df|afge fdcd|eaag eddB||
